!!!COM: Robert Schumann
!!!CNT: Deutsch
!!!TXO: Deutsch
!!!OTL: Der Page
!!!LYR: Geibel
!!!OPR: Drei Gedichte
!!!OPS: Op.30
!!!ONM: No. 2
!!!ENC: Ben Fuhrman
!!!YOR: Schumann Lieder - Max Friedlaender, ed.,
!!!YOR: New York: C. F. Peters, Vol. 2
!!!ODT: 1840/
!!NB: Vocal melody and text only encoded.
!!NB: First instance of melodic material only encoded.
**kern	**silbe
*clefG2	*
*k[f#c#]	*
*M6/8	*
!!created:
!!proofed and posted:
!!edit time:
=	=
4r	.
8r	.
{4e	{Da
8e	ich
=1	=1
4a	nun
8a	ent-
4a	-sa-
8a	-gen
=2	=2
4a	mu2s-
8g	-sen
4f#	al-
8e	-lem,
=3	=3
4d#	was
8e	mein
4g	Herz
8e	er-
=4	=4
8.dn	be-
8.c#	-ten,
4d	lass
8e	mich
=5	=5
4f#	die-
8a	-se
4dd	Stel-
8cc#	-le
=6	=6
4b	ku2ss-
8a	-sen,
4g#	die
8b	dein
=7	=7
4ee	scho2-
8a	-ner
4cc#	Fuss
8b	be-
=8	=8
8.b	-tre-
8.a}	-ten.}
{4a	{Darf
8a	ich
=9	=9
4a	auch
8a	als
4b	Rit-
8f#	-ter
=10	=10
4a	nim-
8g	-mer
4f#	dir
8e	be-
=11	=11
4d#	-glu2ckt
8e	zur
4g	Sei-
8B	-te
=12	=12
8.dn	schrei-
8.c#	-ten,
4d	lass
8e	mich
=13	=13
4f#	doch
8a	als
4dd	Pa-
8cc#	-gen
=14	=14
4b	im-
8a	-mer
4g#	in
8b	die
=15	=15
4ee	Mes-
8a	-se
4cc#	dich
8b	be-
=16	=16
8.b	glei-
8.a}	-ten.}
{4a	{Will
8a	ja
=17	=17
4ccn	treu
8fn	sein
4fn	und
8fn	ver-
=18	=18
4dd	-schwie-
8g	-gen,
4g	tags
8g	dem
=19	=19
4b-	klein-
8g	-sten
4e	Win-
8cn	-ke
=20	=20
8.B-	lau-
8.A	-schen,
4fn	nachts
8fn	auf
=21	=21
(qfn	dei
8e-	|
8d)	|
8e-	-ner
4g	Schwel-
8fn	-le
=22	=22
4e-	lie-
8d	-gen,
4d	mag
8fn	auch
=23	=23
4b-	Sturm
8dd	und
4een	Ha-
8dd	-gel
=24	=24
8.dd	rau-
8.cc#}	-schen.}
4r	.
8r	.
!! rest to measure 26
=26	=26
4r	.
8r	.
{4a	{will
8a	dir
=27	=27
4cn	stets
8fn	mit
4fn	sitt'-
8fn	-gem
=28	=28
4dd	Gru2-
8g	-ssen
4g	mor-
8g	-gens
=29	=29
4b-	fri-
8g	sche
4e	Ro-
8cn	-sen
=30	=30
8.B-	brin-
8.A	-gen,
4fn	will
8fn	des
=31	=31
(qfn	A-
8e-	|
8d)	|
8e-	-bends,
4g	dir
8fn	zu
=32	=32
4e-	Fu2-
8d	-ssen,
4d	Lie-
8d	-der
=33	=33
(8fn	zur
8e-)	|
8e-	Gi-
4g	-tar-
8fn	-re
=34	=34
8.e-	sin-
8.d}	-gen;}
4r	.
8r	.
!! rest to measure 36
=36	=36
4r	.
8r	.
{4a	{will
8a#	den
=37	=37
4b	wei-
8e	-ssen
4e	Ren-
8b	-ner
=38	=38
4b	za2u-
8a	-men,
4a	wenn's
8a	dich
=39	=39
4g	lu2-
8c#	-stet
4c#	frisch
8g	zu
=40	=40
4g	ja-
8d	-gen,
4B	will
8d	dir
=41	=41
4g	in
8b	des
4dd	Wal-
8f#	-des
=42	=42
4g	Ra2u-
8d	-men
4B	die-
8d	-nend
=43	=43
4g	Speer
8b	und
4dd	Fal-
8f#	-ken
=44	=44
4g	tra-
8g}	-gen;}
{4b	{will
8b	auf
=45	=45
4b	dei-
8e	-nen
4e	Lie-
8b	-bes-
=46	=46
4b	-we-
8a	-gen
4g	selbst
8g	den
=47	=47
4g	Fak-
8c#	-kel-
4c#	-tra2-
8g	-ger
=48	=48
4g	ma-
8d	-chen,
4B	und
8d	am
=49	=49
4g	Tor
8b	mit
4dd	blan-
8f#	-ken
=50	=50
4g	De-
8g	-gen,
4ccn	wenn
8d#	du
=51	=51
4e	and-
8e	-re
4b	ku2s-
8dn	-sest,
=52	=52
4d	wa-
8c#}	-chen.}
4r	.
8r	.
!! rest to measure 56
=56	=56
4r	.
8r	.
{4a	{Und
8a	das
=57	=57
4a	al-
8a	-les
4ccn	oh-
8b	-ne
=58	=58
4a	Kla-
8g	-ge,
4f#	oh-
8e	-ne
=59	=59
4d#	Fleh'n,
8e	nicht
4g	laut
8e	noch
=60	=60
8.dn	lei-
8.c#	-se,
4d	wenn
8e	mir
=61	=61
4f#	nach
8a	voll-
4dd	-brach-
8cc#	-tem
=62	=62
4b	Ta-
8a	-ge
4g#	nur
8b	ein
=63	63
4ee	La2-
8a	-cheln
4cc#	wird
8b	zum
=64	=64
8.b	Prei-
8.a}	-se,}
{4a	{wenn
8a	gleich
=65	=65
(8cc#	ei-
8b)	|
8a	-nem
4dd	Se-
8a	-gen-
=66	=66
4g	-ster-
8f#	-ne,
4f#	der
8f#	mein
=67	=67
(8a#	gan-
8g#)	|
8f#	-zes
4b	We-
8f#	-sen
=68	=68
4e	len-
8d	-ket,
4e	nur
8f#	dein
=69	=69
4g	Aug'
8b	aus
4ee	wei-
8dd	-ter
=70	=70
4cc#	Fer-
8b	-ne
(8a	ei-
8cc#)	|
8b	-nen
=71	=71
4a	einz'-
8f#	-gen
4e	Strahl
8f#	mir
=72	=72
4d	schen-
8d}	-ket,}
4r	.
8r	.
!! rest to measure 74
=74	=74
4r	.
8r	.
{4dd	{ei-
8b	-nen
=75	=75
4a	einz'-
8f#	-gen
(8e	Strahl
8b)	|
8a	mir
=76	=76
4d	schen-
8d}	-ket}
4r	.
8r	.
!! rest to measure 78
=78	=78
4r	.
8r	.
{4dd	{ei-
8b	-nen
=79	=79
4a	einz'-
8f#	-gen
(8e	Strahl
8b)	|
8a	mir
=80	=80
4d	schen-
8d}	-ket.}
4r	.
8r	.
==	==
*-	*-
